X:9535
T:Les Stires (CT 301)
R:Aada
C:Tradicional
S:Msica Tradicional Asturiana, (C) Tello & Tito. Asturies, 2001.
S:http://pagina.de/MusTradAst <telloytito@asturies.org>
N:Cancin de Cuna (Aada), dictada por Leandra Gonzlez Zuazua, de cincuenta aos, de Uviu.
N:Se conoce con el nombre de "Les Stires", y se supone que la canta una mujer mientras adormece a su hojo, la cual, celosa de su marido, zahiere con esta cancin a una vecina por suponerla sosteniendo relaciones ilcitas con alquel.
O:Uviu
A:Asturies
Z:Cancioneru de Torner 301
M:6/8
L:1/8
Q:3/8=80
W:Duerme, nin del alma,
W:que tu padre fue a llindiar
W:y entra pol monte de la vecina
W:como si jues propied.
W:
W:Duerme mi amor
W:Al tu home, samayona,
W:tengo de enteralu yo.
W:
W:---------
W:
W:"Variacin 1"
W:Traes mil enredos con los vecinos
W:y engaes al probe Xuan,
W:y lo que enrolles,
W:duerme, mio nea,
W:bien lo fal el sacristn.
W:Duerme, nin.
W:Al tu monte, pantasmona,
W:entra cualesquier vecn.
W:
W:"Variacin 2"
W:Esos corales que lluces
W:tengo arranctelos yo;
W:los perendengues
W:dexate mocha.
W:Duerme, nin del Seor,
W:duerme, nin.
W:Chaste refaxu paxizu:
W:ya s quin te lu merc.
K:G
|ddd e2 c|d3 d3|eed cBA|G3 GFG|(c2 (3d/c/B/) A3-|A3 Adc|
{A}(B2(3c/B/A/) G3|AAc cBA|G6-|G2 z BAG|A6|
Add dee|(d2 (3e/d/c/ B2 c/4B/4A/4G/4|A) A2-A3|Add cBA|G6-|G2 z4 :||
